X: 2
T: El Condor Pasa
N: Transposed
C: Daniel Alom\'ia Robles 1913
O: Peru
M: 4/4
Q:1/4=80
L: 1/8
K: Fm
C |:\
"Fm"F=EFG AGAB | "Ab"c6 ee | c6 fe | "Ab"c4- ccBA |
"Fm"B/2A/2F- F3 zA2 |F4- F3 [1 C :|[2 c ||
|:\
"Db"f3 e f>e fg | ag f4 af | "Ab"e4 zefe | c4- c3 c |
"Db"f3 e f>e fg | ag f4 af | "Ab"e4 zefe | c4 zcBA |
"Fm"B/2A/2F- F3 zA2 | F4- F3 A :| "Fm"F4- F3 A | F6 z |]

